frontend/static/logos/crownd-logo-image.svg

<?xml version="1.0" encoding="UTF-8"?>
<svg width="300px" height="305px" viewBox="0 0 300 305" version="1.1" xmlns="http://www.w3.org/2000/svg" xmlns:xlink="http://www.w3.org/1999/xlink">
    <g id="Page-1" stroke="none" stroke-width="1" fill="none" fill-rule="evenodd">
        <g id="Ellipse-7.3-(Stroke)-2" fill="#000000">
            <path d="M94,0 L122,27.8643 L150,0 L178,27.8643 L206,0 L242.485,36.3085 L199.473,79.1122 L210.717,88.1011 L210.966,88.3534 C226.84,104.458 242.4,130.115 242.4,155.727 C242.4,206.51 201.031,247.679 150,247.679 C98.9685,247.679 57.5996,206.51 57.5996,155.727 C57.5996,132.932 65.1152,112.799 78.9232,96.7896 L66.7657,85.2215 C50.1479,104.158 40.7998,128.285 40.7998,155.727 C40.7998,215.744 89.6903,264.398 150,264.398 C210.309,264.398 259.2,215.744 259.2,155.727 C259.2,126.403 246.531,100.607 227.203,80.8752 L223.111,76.6979 L252.594,46.7351 L256.882,50.987 C284.173,78.0521 300,114.476 300,155.727 C300,238.168 232.843,305 150,305 C67.1573,305 0,238.168 0,155.727 C0,114.356 17.9157,75.9742 45.1182,48.9967 L53.5889,57.4554 C28.4657,82.3707 12,117.775 12,155.727 C12,231.573 73.7847,293.058 150,293.058 C226.215,293.058 288,231.573 288,155.727 C288,119.834 275.064,88.1098 252.606,63.7919 L239.801,76.8055 C258.719,97.8415 271.2,124.922 271.2,155.727 C271.2,222.339 216.937,276.339 150,276.339 C83.0629,276.339 28.7998,222.339 28.7998,155.727 C28.7998,123.061 40.8641,94.3256 62.2035,72.5397 L66.3514,68.3049 L95.8558,96.3792 L91.6001,100.697 C77.4427,115.059 69.5996,133.802 69.5996,155.727 C69.5996,199.915 105.596,235.737 150,235.737 C194.403,235.737 230.4,199.915 230.4,155.727 C230.4,134.569 217.25,111.886 202.644,96.965 L181.527,80.0831 L225.515,36.3085 L206,16.8883 L178,44.7526 L150,16.8883 L122,44.7526 L94,16.8883 L74.4853,36.3085 L113.743,75.3756 L105.257,83.8197 L57.5147,36.3085 L94,0 Z" id="Shape"></path>
        </g>
    </g>
</svg>

<svg width="300" height="305" xmlns="http://www.w3.org/2000/svg"><path d="M94 0l28 27.864L150 0l28 27.864L206 0l36.485 36.309-43.012 42.803 11.244 8.99.249.251c15.874 16.105 31.434 41.762 31.434 67.374 0 50.783-41.369 91.952-92.4 91.952-51.031 0-92.4-41.169-92.4-91.952 0-22.795 7.515-42.928 21.323-58.937L66.766 85.22C50.148 104.159 40.8 128.286 40.8 155.728c0 60.017 48.89 108.671 109.2 108.671 60.309 0 109.2-48.654 109.2-108.671 0-29.324-12.669-55.12-31.997-74.852l-4.092-4.177 29.483-29.963 4.288 4.252C284.173 78.052 300 114.476 300 155.727 300 238.168 232.843 305 150 305S0 238.168 0 155.727c0-41.371 17.916-79.753 45.118-106.73l8.47 8.458C28.467 82.371 12 117.775 12 155.727c0 75.846 61.785 137.331 138 137.331s138-61.485 138-137.331c0-35.893-12.936-67.617-35.394-91.935l-12.805 13.013c18.918 21.036 31.399 48.117 31.399 78.922 0 66.612-54.263 120.612-121.2 120.612-66.937 0-121.2-54-121.2-120.612 0-32.666 12.064-61.401 33.403-83.187l4.148-4.235 29.505 28.074-4.256 4.318c-14.157 14.362-22 33.105-22 55.03 0 44.188 35.996 80.01 80.4 80.01 44.403 0 80.4-35.822 80.4-80.01 0-21.158-13.15-43.841-27.756-58.762l-21.117-16.882 43.988-43.774L206 16.889l-28 27.864-28-27.865-28 27.865-28-27.865-19.515 19.42 39.258 39.068-8.486 8.444-47.742-47.511L94 0z" fill="#000" fill-rule="evenodd"/></svg>
